assets/icon.svg

<svg xml:space="preserve" style="clip-rule:evenodd;fill-rule:evenodd;stroke-linejoin:round;stroke-miterlimit:2" width="512" height="512" xmlns="http://www.w3.org/2000/svg"><path style="fill:#f2a800;fill-rule:nonzero;stroke-width:.983737" d="M-494.731-47.693H685.754V542.55H-494.73z"/><path style="fill:#0033a0;fill-rule:nonzero;stroke-width:.983737" d="M-494.731-47.693H685.754v393.495H-494.73z"/><path style="fill:#d90012;fill-rule:nonzero;stroke-width:.983737" d="M-494.731-47.693H685.754v196.747H-494.73z"/><path d="M11.979 12.481c-.637-.085-1.084-.224-1.859-.578a32.3 32.3 0 0 0-.355-.161l-.058-.025-.228.094a5.885 5.885 0 0 1-1.424.404c-.19.028-.591.054-.734.048h-.097l1.281-1.257.127.085c.207.139.552.339.883.511l.191.1.052-.02c.046-.017.417-.229.492-.281.027-.018.024-.021-.119-.098-.392-.211-1.188-.676-1.217-.711-.01-.012-.002-.037.03-.096.204-.379.319-.673.387-.99.094-.436.116-1.109.047-1.447-.162-.8-.508-1.441-1.02-1.892-.327-.287-.587-.431-1.073-.591a5.275 5.275 0 0 1-.297-.105c-.107-.054-.206-.143-.397-.355-.473-.526-1.076-1.039-1.432-1.217-.219-.11-.513-.133-.804-.062-.182.044-.513.23-.68.382-.158.144-.213.284-.142.36.062.066.144.084.422.095.562.022.682.077 1.132.519.202.197.326.339.365.415.014.027.054.136.089.242.082.244.204.496.337.694.057.085.21.295.34.465.13.17.263.348.295.395.25.366.264.652.047.97-.058.086-.236.289-.252.289-.02 0-.641-.539-1.027-.891a24.216 24.216 0 0 1-1.847-1.866 15.084 15.084 0 0 1-.834-1.04c-.109-.148-.176-.228-.184-.22a3.662 3.662 0 0 0-.197.497l-.038.133.195.247a23.795 23.795 0 0 0 3.261 3.385c.097.083.179.156.182.162.015.025-1.999 1.873-2.041 1.873-.041 0-.498-.476-.708-.737a4.51 4.51 0 0 1-.57-.913c-.404-.809-.579-1.541-.577-2.422 0-.531.054-.95.182-1.428l.044-.165-.026-.036c-.08-.108-.395-.586-.481-.73-.336-.563-.531-1.006-.612-1.39a1.538 1.538 0 0 1-.008-.556c.072-.269.254-.437.548-.504.135-.031.49-.031.675 0 .461.078.961.245 1.662.558l.07.031.093-.071c.255-.195.653-.431.977-.579a5.418 5.418 0 0 1 1.777-.477 6.72 6.72 0 0 1 1.033.01c1.125.132 2.026.513 2.913 1.234.168.135.559.527.695.695a5.48 5.48 0 0 1 1.196 2.831c.027.224.037.75.018.98a5.454 5.454 0 0 1-.542 2.003l-.106.219.099.153c.252.386.365.581.523.902.343.697.431 1.201.267 1.543-.102.214-.295.338-.583.376a2.19 2.19 0 0 1-.359.019zm.206-.568a.452.452 0 0 0 .346-.274c.042-.109.04-.312-.005-.481a3.127 3.127 0 0 0-.304-.708c-.143-.254-.371-.601-.395-.601a.195.195 0 0 0-.046.059 5.993 5.993 0 0 1-.364.48 6.967 6.967 0 0 1-.941.882c-.095.073-.148.123-.141.131.018.018.394.182.653.286.503.2.934.282 1.197.226zm-1.171-3.532a.644.644 0 0 0 .137-.068 5.75 5.75 0 0 0 .589-.508c.167-.166.17-.169.196-.259a.61.61 0 0 0-.018-.399c-.074-.151-.359-.453-.484-.514a.559.559 0 0 0-.444-.01c-.097.05-.494.378-.68.563-.152.15-.2.231-.214.363-.017.162.042.312.2.505.164.199.292.304.416.339a.613.613 0 0 0 .302-.012zm-.857-1.36c.028-.01.068-.022.089-.035.12-.07 1.041-.844 1.309-1.102.133-.127.174-.185.195-.279a.822.822 0 0 0-.006-.326c-.036-.101-.196-.303-.387-.487-.128-.123-.178-.146-.339-.156-.166-.01-.229.01-.356.105a37.07 37.07 0 0 0-1.056.879c-.237.205-.287.261-.345.384-.03.064-.033.086-.033.202 0 .122.003.136.039.211.046.093.207.298.343.437.164.168.334.22.547.167zm-.895-1.333c.074-.033.142-.085.505-.387.617-.514.957-.826 1.003-.921a.625.625 0 0 0-.001-.464c-.062-.128-.391-.489-.495-.542a.585.585 0 0 0-.396-.035c-.09.026-.154.073-.569.42-.483.403-.69.583-.844.737-.166.164-.19.215-.19.403 0 .115.003.129.04.205.056.112.18.274.31.404.194.194.243.217.442.211.106 0 .15-.01.195-.031zM2.526 4.403c.265-.489.5-.815.902-1.255.146-.16.186-.21.172-.218a8.879 8.879 0 0 0-.642-.247 1.765 1.765 0 0 0-.663-.101c-.24-.001-.242 0-.317.034a.412.412 0 0 0-.205.2c-.035.077-.047.289-.023.421.034.199.139.467.293.754.14.26.368.621.379.601.005-.01.053-.094.104-.19z" style="fill:#fff;fill-rule:nonzero" transform="matrix(34.71485 0 0 34.71485 8.311 9.214)"/></svg>

<?xml version="1.0" encoding="UTF-8" standalone="no"?>
<svg
   viewBox="0 0 512 512"
   xml:space="preserve"
   style="clip-rule:evenodd;fill-rule:evenodd;stroke-linejoin:round;stroke-miterlimit:2"
   version="1.1"
   id="svg171"
   width="512"
   height="512"
   xmlns="http://www.w3.org/2000/svg"
   xmlns:svg="http://www.w3.org/2000/svg"><defs
     id="defs175" /><path
     style="fill:#f2a800;fill-rule:nonzero;stroke-width:0.983737"
     d="M -494.73124,-47.693086 H 685.75408 V 542.54958 H -494.73124 Z"
     id="path161" /><path
     style="fill:#0033a0;fill-rule:nonzero;stroke-width:0.983737"
     d="M -494.73124,-47.693086 H 685.75408 V 345.80202 H -494.73124 Z"
     id="path163" /><path
     style="fill:#d90012;fill-rule:nonzero;stroke-width:0.983737"
     d="M -494.73124,-47.693086 H 685.75408 V 149.05446 H -494.73124 Z"
     id="path165" /><g
     id="g169"
     transform="matrix(0.68462454,0,0,0.68462454,-165.4103,-20.103197)"><path
       d="M 11.979,12.481 C 11.342,12.396 10.895,12.257 10.12,11.903 A 32.3,32.3 0 0 0 9.765,11.742 L 9.707,11.717 9.479,11.811 a 5.885,5.885 0 0 1 -1.424,0.404 c -0.19,0.028 -0.591,0.054 -0.734,0.048 H 7.224 l 1.281,-1.257 0.127,0.085 c 0.207,0.139 0.552,0.339 0.883,0.511 l 0.191,0.1 0.052,-0.02 C 9.804,11.665 10.175,11.453 10.25,11.401 10.277,11.383 10.274,11.38 10.131,11.303 9.739,11.092 8.943,10.627 8.914,10.592 8.904,10.58 8.912,10.555 8.944,10.496 9.148,10.117 9.263,9.823 9.331,9.506 9.425,9.07 9.447,8.397 9.378,8.059 9.216,7.259 8.87,6.618 8.358,6.167 8.031,5.88 7.771,5.736 7.285,5.576 A 5.275,5.275 0 0 1 6.988,5.471 C 6.881,5.417 6.782,5.328 6.591,5.116 6.118,4.59 5.515,4.077 5.159,3.899 4.94,3.789 4.646,3.766 4.355,3.837 4.173,3.881 3.842,4.067 3.675,4.219 3.517,4.363 3.462,4.503 3.533,4.579 3.595,4.645 3.677,4.663 3.955,4.674 4.517,4.696 4.637,4.751 5.087,5.193 5.289,5.39 5.413,5.532 5.452,5.608 5.466,5.635 5.506,5.744 5.541,5.85 5.623,6.094 5.745,6.346 5.878,6.544 5.935,6.629 6.088,6.839 6.218,7.009 6.348,7.179 6.481,7.357 6.513,7.404 6.763,7.77 6.777,8.056 6.56,8.374 6.502,8.46 6.324,8.663 6.308,8.663 6.288,8.663 5.667,8.124 5.281,7.772 A 24.216,24.216 0 0 1 3.434,5.906 15.084,15.084 0 0 1 2.6,4.866 C 2.491,4.718 2.424,4.638 2.416,4.646 A 3.662,3.662 0 0 0 2.219,5.143 L 2.181,5.276 2.376,5.523 A 23.795,23.795 0 0 0 5.637,8.908 C 5.734,8.991 5.816,9.064 5.819,9.07 5.834,9.095 3.82,10.943 3.778,10.943 3.737,10.943 3.28,10.467 3.07,10.206 A 4.51,4.51 0 0 1 2.5,9.293 C 2.096,8.484 1.921,7.752 1.923,6.871 1.923,6.34 1.977,5.921 2.105,5.443 L 2.149,5.278 2.123,5.242 C 2.043,5.134 1.728,4.656 1.642,4.512 1.306,3.949 1.111,3.506 1.03,3.122 A 1.538,1.538 0 0 1 1.022,2.566 C 1.094,2.297 1.276,2.129 1.57,2.062 1.705,2.031 2.06,2.031 2.245,2.062 2.706,2.14 3.206,2.307 3.907,2.62 L 3.977,2.651 4.07,2.58 C 4.325,2.385 4.723,2.149 5.047,2.001 a 5.418,5.418 0 0 1 1.777,-0.477 6.72,6.72 0 0 1 1.033,0.01 c 1.125,0.132 2.026,0.513 2.913,1.234 0.168,0.135 0.559,0.527 0.695,0.695 a 5.48,5.48 0 0 1 1.196,2.831 c 0.027,0.224 0.037,0.75 0.018,0.98 a 5.454,5.454 0 0 1 -0.542,2.003 l -0.106,0.219 0.099,0.153 c 0.252,0.386 0.365,0.581 0.523,0.902 0.343,0.697 0.431,1.201 0.267,1.543 -0.102,0.214 -0.295,0.338 -0.583,0.376 a 2.19,2.19 0 0 1 -0.359,0.019 z m 0.206,-0.568 a 0.452,0.452 0 0 0 0.346,-0.274 c 0.042,-0.109 0.04,-0.312 -0.005,-0.481 A 3.127,3.127 0 0 0 12.222,10.45 C 12.079,10.196 11.851,9.849 11.827,9.849 a 0.195,0.195 0 0 0 -0.046,0.059 5.993,5.993 0 0 1 -0.364,0.48 6.967,6.967 0 0 1 -0.941,0.882 c -0.095,0.073 -0.148,0.123 -0.141,0.131 0.018,0.018 0.394,0.182 0.653,0.286 0.503,0.2 0.934,0.282 1.197,0.226 z M 11.014,8.381 A 0.644,0.644 0 0 0 11.151,8.313 5.75,5.75 0 0 0 11.74,7.805 C 11.907,7.639 11.91,7.636 11.936,7.546 A 0.61,0.61 0 0 0 11.918,7.147 C 11.844,6.996 11.559,6.694 11.434,6.633 A 0.559,0.559 0 0 0 10.99,6.623 c -0.097,0.05 -0.494,0.378 -0.68,0.563 -0.152,0.15 -0.2,0.231 -0.214,0.363 -0.017,0.162 0.042,0.312 0.2,0.505 0.164,0.199 0.292,0.304 0.416,0.339 a 0.613,0.613 0 0 0 0.302,-0.012 z m -0.857,-1.36 c 0.028,-0.01 0.068,-0.022 0.089,-0.035 0.12,-0.07 1.041,-0.844 1.309,-1.102 0.133,-0.127 0.174,-0.185 0.195,-0.279 A 0.822,0.822 0 0 0 11.744,5.279 C 11.708,5.178 11.548,4.976 11.357,4.792 11.229,4.669 11.179,4.646 11.018,4.636 10.852,4.626 10.789,4.646 10.662,4.741 A 37.07,37.07 0 0 0 9.606,5.62 C 9.369,5.825 9.319,5.881 9.261,6.004 9.231,6.068 9.228,6.09 9.228,6.206 c 0,0.122 0.003,0.136 0.039,0.211 0.046,0.093 0.207,0.298 0.343,0.437 0.164,0.168 0.334,0.22 0.547,0.167 z M 9.262,5.688 C 9.336,5.655 9.404,5.603 9.767,5.301 10.384,4.787 10.724,4.475 10.77,4.38 A 0.625,0.625 0 0 0 10.769,3.916 C 10.707,3.788 10.378,3.427 10.274,3.374 A 0.585,0.585 0 0 0 9.878,3.339 C 9.788,3.365 9.724,3.412 9.309,3.759 8.826,4.162 8.619,4.342 8.465,4.496 8.299,4.66 8.275,4.711 8.275,4.899 c 0,0.115 0.003,0.129 0.04,0.205 0.056,0.112 0.18,0.274 0.31,0.404 0.194,0.194 0.243,0.217 0.442,0.211 0.106,0 0.15,-0.01 0.195,-0.031 z M 2.526,4.403 C 2.791,3.914 3.026,3.588 3.428,3.148 3.574,2.988 3.614,2.938 3.6,2.93 A 8.879,8.879 0 0 0 2.958,2.683 1.765,1.765 0 0 0 2.295,2.582 c -0.24,-10e-4 -0.242,0 -0.317,0.034 a 0.412,0.412 0 0 0 -0.205,0.2 C 1.738,2.893 1.726,3.105 1.75,3.237 1.784,3.436 1.889,3.704 2.043,3.991 2.183,4.251 2.411,4.612 2.422,4.592 2.427,4.582 2.475,4.498 2.526,4.402 Z"
       style="fill:#ffffff;fill-rule:nonzero"
       transform="matrix(50.7064,0,0,50.7064,253.747,42.822)"
       id="path167" /></g></svg>
